exported-svg/alert-octagon.svg

<svg height="24" viewBox="0 0 24 24" width="24" xmlns="http://www.w3.org/2000/svg"><path d="m7.50644661 1.64644661c.09376819-.09376819.22094515-.14644661.35355339-.14644661h8.28c.1326082 0 .2597852.05267842.3535534.14644661l5.86 5.86c.0937682.09376819.1464466.22094515.1464466.35355339v8.28c0 .1326082-.0526784.2597852-.1464466.3535534l-5.86 5.86c-.0937682.0937682-.2209452.1464466-.3535534.1464466h-8.28c-.13260824 0-.2597852-.0526784-.35355339-.1464466l-5.86-5.86c-.09376819-.0937682-.14644661-.2209452-.14644661-.3535534v-8.28c0-.13260824.05267842-.2597852.14644661-.35355339zm.56066017.85355339-5.56710678 5.56710678v7.86578642l5.56710678 5.5671068h7.86578642l5.5671068-5.5671068v-7.86578642l-5.5671068-5.56710678zm3.43289322 3.7c0-.38659932.2238576-.7.5-.7s.5.31340068.5.7v5.6c0 .3865993-.2238576.7-.5.7s-.5-.3134007-.5-.7zm.5 9.8c-.2761424 0-.5-.2238576-.5-.5s.2238576-.5.5-.5.5.2238576.5.5-.2238576.5-.5.5z"/></svg>

<?xml version="1.0" encoding="UTF-8"?>
<svg width="24px" height="24px" viewBox="0 0 24 24" version="1.1" xmlns="http://www.w3.org/2000/svg" xmlns:xlink="http://www.w3.org/1999/xlink">
    <!-- Generator: Sketch 55.2 (78181) - https://sketchapp.com -->
    <title>alert-octagon</title>
    <desc>Created with Sketch.</desc>
    <g id="alert-octagon" stroke="none" stroke-width="1" fill="none" fill-rule="evenodd">
        <path d="M7.50644661,1.64644661 C7.6002148,1.55267842 7.72739176,1.5 7.86,1.5 L16.14,1.5 C16.2726082,1.5 16.3997852,1.55267842 16.4935534,1.64644661 L22.3535534,7.50644661 C22.4473216,7.6002148 22.5,7.72739176 22.5,7.86 L22.5,16.14 C22.5,16.2726082 22.4473216,16.3997852 22.3535534,16.4935534 L16.4935534,22.3535534 C16.3997852,22.4473216 16.2726082,22.5 16.14,22.5 L7.86,22.5 C7.72739176,22.5 7.6002148,22.4473216 7.50644661,22.3535534 L1.64644661,16.4935534 C1.55267842,16.3997852 1.5,16.2726082 1.5,16.14 L1.5,7.86 C1.5,7.72739176 1.55267842,7.6002148 1.64644661,7.50644661 L7.50644661,1.64644661 Z M8.06710678,2.5 L2.5,8.06710678 L2.5,15.9328932 L8.06710678,21.5 L15.9328932,21.5 L21.5,15.9328932 L21.5,8.06710678 L15.9328932,2.5 L8.06710678,2.5 Z" id="Shape" fill="#000000" fill-rule="nonzero"></path>
        <path d="M11.5,6.2 C11.5,5.81340068 11.7238576,5.5 12,5.5 C12.2761424,5.5 12.5,5.81340068 12.5,6.2 L12.5,11.8 C12.5,12.1865993 12.2761424,12.5 12,12.5 C11.7238576,12.5 11.5,12.1865993 11.5,11.8 L11.5,6.2 Z M12,16 C11.7238576,16 11.5,15.7761424 11.5,15.5 C11.5,15.2238576 11.7238576,15 12,15 C12.2761424,15 12.5,15.2238576 12.5,15.5 C12.5,15.7761424 12.2761424,16 12,16 Z" id="Combined-Shape" fill="#000000" fill-rule="nonzero"></path>
    </g>
</svg>
